X:280
T: Lucky in Love
Z: B.Black
S: "Treoir" 33/4
N: Note that only B part is repeated (at least
N: according to source)
L: 1/8
M: 4/4
R: reel
K: G
gfgd BGGA|BGdG BA A2|gagd BGdB|c2 Ac BG G2|
efed BGGA|BGdG BA A2|gagd BGdB|c2 Ac BGGA||
BGdG eBdG|BGdB cA A2|BGdB eBdB|c2 Ac BGGA|
BGdG eGdG|BGdB cA A2|ABcd eaag|fdBd gaba :|
